X: 772
T: Fındıklı Bizim Yolumuz
C: (Anonim)
O: Turkey
F: http://compmusic.upf.edu/node/140
N: ussak--turku--aksak--findikli_bizim--
N: makam= ussak
N: form= turku
N: usul= aksak = 9/8
M: 9/8
L: 1/16
K: C _2/4B   
Q: 1/4=216
%%MIDI tuningsystem comma53
G4 A2B2 c2d2 c4 B2 | d2 d4 d2d2 d2c4B2  | \
w:  Fın dık *  lı   |  bi zim  de  yo *  lu muz_  | 
c3c c2B2 B2A2 A4 z2 | 
w:  e şim_ a man_ am *  man    | 
G4A2 B2c2 d2c4B2  | d2d4d2 d2d2 c4 B2 | \
w:  Fın dık *  lı   |  bi zim  de  yo *  lu muz_  | 
c3cc2 B2B2 A2A4z2  | 
w:  e şim_ a man_ am *  man    | 
G2G4c2 c2BA B4 z2 | G2 G4 c2c2 BAB4d2  | \
w:  Ho var *  da   |  ho var *  da   | 
d3c c2d2 c2B2 A4 B2 | 
w:  çık *  tı  da  so *  yu  | 
c4{d}c2 d2c2 d2e4d2  | d2c4d2 (3c2B2A2 B6 | \
w:  muz    |  Ho var *  da   | 
d2 c4 d2(3c2B2A2B4d2  | 
w:  ho var *  da   | 
d3c c2d2 c2B2 B4 A2 | A8Ag ^3/4fge6  | \
w:  çık *  tı  *  so *  yu  |  muz   SAZ  | 
g4 {a}g2{a}^3/4f2 e4 {=f}e4 d2 | d4d2 d2c2 d2c4B2  | 
w:  Bu  *  bi *  *  zim   |  es ki  de  hu *  yu muz   | 
c3c c2B2 B4 A4 z2 | G4A2 B2c2 d2c4B2  | \
w:  be yim_ a man_ am man    |  Bu  bi *  zim   | 
d4 d2d2 d2d2 c4 B2 | 
w:  es ki  de  hu yu muz   | 
c3cc2 B2B4A4z2  | G4 G2c2 B2{c}BA B6 | \
w:  be yim_ a man_ am man    |  Sen  han *  cı   | 
G4G2 c2B2 {c}BAB4d2  | 
w:  ben  yol *  cu   | 
d3c c2d2 c2B2 A4 B2 | c3dc2 d2c2 d2e4d2  | \
w:  çat *  ma  da  kaş *  la  |  rın    | 
d3c c2d2 c2BA B4 A2 | 
w:  Sar  *  do la  boy  | 
d3c{d}c2 d2c2 B2B4A2  | {B}A8-A2z8 | \
w:  nu *  *  *  ma  kol *  la  |  *  rın    | 
G4A2 B2c2 d2c4B2  | d2d4d2 d2d2 c4 B2 | 
w:  Fın dık *  lı   |  bi zim  de  yo *  lu muz_  | 
c3cc2 B2B2 A2A4z2  | G4 A2B2 c2d2 c4 B2 | \
w:  e şim_ a man_ am *  man    |  Fın dık *  lı   | 
d2 d4 d2d2 d2c4B2  | 
w:  bi zim  de  yo *  lu muz_  | 
c3c c2B2 B2A2 A4 z2 | G2 G4 c2c2 BAB4z2  | \
w:  e şim_ a man_ am *  man    |  Ho var *  da   | 
G2G4c2 c2BA B4 d2 | 
w:  ho var *  da   | 
d3cc2 d2c2 B2A4B2  | c4 {d}c2d2 c2d2 e4 d2 | \
w:  çık *  tı  da  so *  yu  |  muz    | 
d2 c4 d2(3c2B2A2B6  | 
w:  Ho var *  da   | 
d2c4d2 (3c2B2A2 B4 d2 | d3cc2 d2c2 B2B4A2  | \
w:  ho var *  da   |  çık *  tı  *  so *  yu  | 
A8 Ag^3/4fg e6 | 
w:  muz   SAZ  | 
g4{a}g2 {a}^3/4f2e4{=f}e4d2  | d4 d2d2 c2d2 c4 B2 | \
w:  Bu  *  bi *  *  zim   |  es ki  de  hu *  yu muz   | 
c3cc2 B2B4A4z2  | G4 A2B2 c2d2 c4 B2 | 
w:  be yim_ a man_ am man    |  Bu  bi *  zim   | 
d4d2 d2d2 d2c4B2  | c3c c2B2 B4 A4 z2 | \
w:  es ki  de  hu yu muz   |  be yim_ a man_ am man    | 
G4G2 c2B2 {c}BAB6  | 
w:  Sen  han *  cı   | 
G4 G2c2 B2{c}BA B4 d2 | d3cc2 d2c2 B2A4B2  | \
w:  ben  yol *  cu   |  çat *  ma  da  kaş *  la  | 
c3d c2d2 c2d2 e4 d2 | 
w:  rın    | 
d3cc2 d2c2 BAB4A2  | d3c {d}c2d2 c2B2 B4 A2 | \
w:  Sar  *  do la  boy  |  nu *  *  *  ma  kol *  la  | 
{B}A8-A2 z8  | |


